packages/kaspersky-hexa-ui-icons/src/iconsSVGs/16/Unlock3.svg

<svg width="16" height="16" viewBox="0 0 16 16" fill="none" xmlns="http://www.w3.org/2000/svg">
<path fill-rule="evenodd" clip-rule="evenodd" d="M12.6248 1.01611C10.9772 1.01611 9.6415 2.35177 9.6415 3.99939V5.37241H4.475C3.03906 5.37241 1.875 6.53647 1.875 7.97241V12.4003C1.875 13.8362 3.03906 15.0003 4.475 15.0003H11.525C12.9609 15.0003 14.125 13.8362 14.125 12.4003V7.97241C14.125 6.53647 12.9609 5.37241 11.525 5.37241H10.9415V3.99939C10.9415 3.06974 11.6951 2.31611 12.6248 2.31611C13.3983 2.31611 14.0515 2.83839 14.2478 3.5507C14.3432 3.89679 14.701 4.10002 15.0471 4.00463C15.3932 3.90925 15.5964 3.55137 15.501 3.20529C15.1533 1.94364 13.9982 1.01611 12.6248 1.01611ZM4.475 6.67241H11.525C12.243 6.67241 12.825 7.25444 12.825 7.97241V12.4003C12.825 13.1183 12.243 13.7003 11.525 13.7003H4.475C3.75703 13.7003 3.175 13.1183 3.175 12.4003V7.97241C3.175 7.25444 3.75703 6.67241 4.475 6.67241Z" fill="black"/>
</svg>

<svg xmlns="http://www.w3.org/2000/svg" width="16" height="16" fill="none" viewBox="0 0 16 16"><path fill="#000" fill-rule="evenodd" d="M12.6248 1.016c-1.6476 0-2.9833 1.3356-2.9833 2.9833v1.373H4.475c-1.436 0-2.6 1.164-2.6 2.6v4.4279c0 1.4359 1.164 2.6 2.6 2.6h7.05c1.4359 0 2.6-1.1641 2.6-2.6v-4.428c0-1.4359-1.1641-2.6-2.6-2.6h-.5835v-1.373c0-.9296.7536-1.6832 1.6833-1.6832.7735 0 1.4267.5223 1.623 1.2346a.65.65 0 1 0 1.2532-.3454c-.3477-1.2617-1.5028-2.1892-2.8762-2.1892M4.475 6.6723h7.05c.718 0 1.3.582 1.3 1.3v4.4279c0 .7179-.582 1.3-1.3 1.3h-7.05c-.718 0-1.3-.5821-1.3-1.3v-4.428c0-.7179.582-1.3 1.3-1.3"/></svg>
